X: 26755
T: Mill House, The
R: reel
M: 4/4
K: Amajor
AB|:c2BA FE~E2|ABcE FBAF|EFAB cfec|cBBA Befe|
c2BA FE~E2|ABcE FDAF|EFAB cfec|1 BAcB ~A2AB:|2 BAcB ABcd||
eAce a2ga|f2af ecAF|EFAB cfec|cBBA B2 cd|
eAce a2ga|f2af ecAF|EFAB cfec|BAcB ABcd|
eAce a2ga|f2af ecAF|EFAB cfec|cBBA Befe|
c2 BA FE~E2|ABcE FDAF|EFAB cfec|BAcB ~A2AB||

